packages/bezier-icons/icons/group.svg

<svg width="24" height="24" viewBox="0 0 24 24" fill="none" xmlns="http://www.w3.org/2000/svg">
<path fill-rule="evenodd" clip-rule="evenodd" d="M11.0002 6.00012C11.0002 4.89712 10.1032 4.00012 9.0002 4.00012C7.8972 4.00012 7.0002 4.89712 7.0002 6.00012C7.0002 7.10312 7.8972 8.00012 9.0002 8.00012C10.1032 8.00012 11.0002 7.10312 11.0002 6.00012ZM13.0002 6.00012C13.0002 8.20612 11.2062 10.0001 9.0002 10.0001C6.7942 10.0001 5.0002 8.20612 5.0002 6.00012C5.0002 3.79412 6.7942 2.00012 9.0002 2.00012C11.2062 2.00012 13.0002 3.79412 13.0002 6.00012ZM16.5002 7.50012C17.0512 7.50012 17.5002 7.94912 17.5002 8.50012C17.5002 9.05112 17.0512 9.50012 16.5002 9.50012C15.9492 9.50012 15.5002 9.05112 15.5002 8.50012C15.5002 7.94912 15.9492 7.50012 16.5002 7.50012ZM16.5002 11.5001C18.1542 11.5001 19.5002 10.1541 19.5002 8.50012C19.5002 6.84612 18.1542 5.50012 16.5002 5.50012C14.8462 5.50012 13.5002 6.84612 13.5002 8.50012C13.5002 10.1541 14.8462 11.5001 16.5002 11.5001ZM17.9342 19.0001C17.7482 17.3261 17.1072 15.7961 16.1342 14.5311C16.1786 14.5282 16.2242 14.5224 16.2697 14.5166L16.2698 14.5166C16.3341 14.5083 16.3984 14.5001 16.4592 14.5001C19.1192 14.5001 21.3932 16.4351 21.8682 19.0001H17.9342ZM14.9402 19.0001H2.07019C2.55819 15.5941 5.50319 13.0001 9.00019 13.0001C12.4972 13.0001 15.4412 15.5941 15.9292 19.0001H14.9402ZM16.4592 12.5001C16.0202 12.5001 15.5792 12.5421 15.1102 12.6271L14.3362 12.7681C12.8372 11.6601 10.9902 11.0001 9.0002 11.0001C4.2692 11.0001 0.324197 14.6941 0.0181973 19.4121C-0.00680265 19.8181 0.139197 20.2231 0.420197 20.5211C0.705197 20.8261 1.1072 21.0001 1.5232 21.0001H14.9402H16.4772H22.4362C22.8572 21.0001 23.2622 20.8231 23.5472 20.5131C23.8272 20.2101 23.9682 19.8031 23.9352 19.3981C23.6272 15.5301 20.3442 12.5001 16.4592 12.5001Z" fill="#313234"/>
</svg>

<svg xmlns="http://www.w3.org/2000/svg" width="24" height="24" fill="none" viewBox="0 0 24 24"><path fill="#313234" fill-rule="evenodd" d="M11 6c0-1.103-.897-2-2-2s-2 .897-2 2 .897 2 2 2 2-.897 2-2m2 0c0 2.206-1.794 4-4 4S5 8.206 5 6s1.794-4 4-4 4 1.794 4 4m3.5 1.5c.551 0 1 .45 1 1 0 .551-.449 1-1 1s-1-.449-1-1 .45-1 1-1m0 4c1.654 0 3-1.346 3-3s-1.346-3-3-3-3 1.346-3 3 1.346 3 3 3m1.434 7.5a8.93 8.93 0 0 0-1.8-4.469q.067-.006.136-.014.096-.015.19-.017c2.66 0 4.933 1.935 5.408 4.5zm-2.994 0H2.07A7.015 7.015 0 0 1 9 13a7.014 7.014 0 0 1 6.93 6zm1.52-6.5c-.44 0-.88.042-1.35.127l-.774.141A8.96 8.96 0 0 0 9 11C4.27 11 .324 14.694.018 19.412a1.5 1.5 0 0 0 .402 1.11c.285.304.687.478 1.103.478h20.914c.42 0 .825-.177 1.11-.487.28-.303.421-.71.388-1.115-.308-3.868-3.59-6.898-7.476-6.898" clip-rule="evenodd"/></svg>
